; HEADER_BLOCK_START
; generated by OrcaSlicer 2.3.1-beta on 2025-10-09 at 01:26:06
; total layer number: 80
; filament_density: 1.27
; filament_diameter: 1.75
; max_z_height: 16.00
; HEADER_BLOCK_END

; external perimeters extrusion width = 0.40mm
; perimeters extrusion width = 0.50mm
; infill extrusion width = 0.40mm
; solid infill extrusion width = 0.60mm
; top infill extrusion width = 0.40mm
; first layer extrusion width = 0.60mm

; external perimeters extrusion width = 0.40mm
; perimeters extrusion width = 0.50mm
; infill extrusion width = 0.40mm
; solid infill extrusion width = 0.60mm
; top infill extrusion width = 0.40mm
; first layer extrusion width = 0.60mm

; EXECUTABLE_BLOCK_START
M201 X2500 Y2500 Z500 E5000
M203 X250 Y250 Z5 E40
M204 P2500 R500 T2500 ; sets acceleration (P, T) and retract acceleration (R), mm/sec^2
M205 X10.00 Y10.00 Z0.40 E5.00 ; sets the jerk limits, mm/sec
;TYPE:Custom
M220 S100 ;Reset Feedrate 
M221 S100 ;Reset Flowrate 
 
M104 S245 ;Set final nozzle temp 
M190 S85 ;Set and wait for bed temp to stabilize 
G28 ;Home 
G92 E0 ;Reset Extruder 
G1 Z2.0 F3000 ;Move Z Axis up 
G1 X-2.1 Y20 Z0.28 F5000.0 ;Move to start position 
M109 S245 ;Wait for nozzle temp to stabilize 
G1 X-2.1 Y145.0 Z0.28 F1500.0 E15 ;Draw the first line 
G1 X-2.4 Y145.0 Z0.28 F5000.0 ;Move to side a little 
G1 X-2.4 Y20 Z0.28 F1500.0 E30 ;Draw the second line 
G92 E0  ;Reset Extruder 
G1 E-1.0000 F1800 ;Retract a bit 
G1 Z2.0 F3000 ;Move Z Axis up 
G1 E0.0000 F1800
G90
G21
M83 ; use relative distances for extrusion
; filament start gcode
M106 S0
;LAYER_CHANGE
;Z:0.2
;HEIGHT:0.2
;BEFORE_LAYER_CHANGE
;0.2
G92 E0

G1 E-1.2 F2400
;_SET_FAN_SPEED_CHANGING_LAYER
M204 P500
; printing object ESP32-Holder.stp id:15 copy 0
M204 T500
G1 X123.021 Y109.054 F12000
G1 Z.6
G1 Z.2
G1 E1.2 F1800
;TYPE:Brim
;WIDTH:0.6
G1 X123.749 Y108.495 E.04042
G1 X124.598 Y108.143 E.04042
G1 X124.921 Y108.101 E.01435
G1 X124.925 Y111.022 E.12855
G1 X124.955 Y111.233 E.0094
G1 X125.015 Y111.411 E.00826
G1 X125.157 Y111.644 E.012
G1 X125.272 Y111.77 E.00752
G1 X125.583 Y111.967 E.01618
G1 X125.893 Y112.046 E.01408
G1 X129.502 Y112.053 E.15881
G1 X129.588 Y112.07 E.00387
G1 X129.636 Y112.117 E.00295
G1 X129.637 Y112.246 E.00569
G1 X129.18 Y113.501 E.05878
G1 X129.135 Y113.564 E.00342
G1 X129.032 Y113.596 E.00476
G1 X127.6 Y113.596 E.063
G1 X127.493 Y113.618 E.00478
G1 X127.332 Y113.707 E.00811
G1 X127.232 Y113.807 E.00622
G1 X127.172 Y113.898 E.00478
G1 X127.121 Y114.075 E.00811
G1 X127.132 Y114.752 E.0298
G1 X127.148 Y114.805 E.00243
G1 X127.28 Y114.972 E.00938
G1 X127.365 Y115.019 E.00426
G1 X127.5 Y115.054 E.00613
G1 X129.06 Y115.054 E.06865
G1 X129.324 Y115.03 E.01166
G1 X129.679 Y114.925 E.01631
G1 X129.989 Y114.749 E.01566
G1 X130.306 Y114.441 E.01945
G1 X130.476 Y114.171 E.01405
G1 X131.016 Y112.716 E.06829
G1 X131.086 Y112.453 E.01196
G1 X131.11 Y112.152 E.01328
G1 X131.099 Y111.978 E.00772
G1 X130.986 Y111.565 E.0188
G1 X130.761 Y111.186 E.01941
G1 X130.532 Y110.954 E.01433
G1 X130.165 Y110.731 E.01892
G1 X129.856 Y110.631 E.0143
G1 X129.533 Y110.596 E.01427
G1 X126.557 Y110.596 E.13097
G1 X126.379 Y110.418 E.01109
G1 X126.379 Y108.138 E.10035
G1 X127.268 Y108.495 E.04218
G1 X127.907 Y108.985 E.03543
G1 X128.062 Y109.042 E.00726
G1 X128.246 Y108.985 E.00849
G1 X128.862 Y108.512 E.03416
G1 X129.71 Y108.161 E.04042
G1 X130.621 Y108.041 E.04042
G1 X131.532 Y108.161 E.04042
G1 X132.38 Y108.512 E.04042
G1 X133.109 Y109.071 E.04042
G1 X133.668 Y109.8 E.04042
G1 X134.02 Y110.649 E.04042
G1 X134.14 Y111.559 E.04042
G1 X134.02 Y112.47 E.04042
G1 X133.668 Y113.319 E.04042
G1 X133.242 Y113.874 E.03079
G1 X133.187 Y114.08 E.00938
G1 X133.247 Y114.532 E.02005
G1 X133.127 Y115.442 E.04042
G1 X132.775 Y116.291 E.04042
G1 X132.216 Y117.02 E.04042
G1 X131.487 Y117.579 E.04042
G1 X130.639 Y117.93 E.04042
G1 X129.728 Y118.05 E.04042
G1 X128.899 Y117.941 E.03679
G1 X128.756 Y117.96 E.00634
G1 X128.361 Y118.124 E.01884
G1 X127.45 Y118.244 E.04042
G1 X126.539 Y118.124 E.04042
G1 X125.691 Y117.772 E.04042
G1 X124.962 Y117.213 E.04042
G1 X124.403 Y116.484 E.04042
G1 X124.051 Y115.636 E.04042
G1 X123.944 Y114.82 E.03619
G1 X123.875 Y114.671 E.00726
G1 X123.021 Y114.03 E.04698
G1 X122.462 Y113.301 E.04042
G1 X122.11 Y112.453 E.04042
G1 X121.99 Y111.542 E.04042
G1 X122.11 Y110.631 E.04042
G1 X122.462 Y109.783 E.04042
G1 X122.996 Y109.086 E.03866
G1 X123.436 Y109.438 F12000
G1 F1800
G1 X124.013 Y108.995 E.03203
G1 X124.134 Y108.938 E.00589
G1 X124.261 Y108.938 E.00558
G1 X124.352 Y109.027 E.00558
G1 X124.365 Y109.092 E.00296
G1 X124.367 Y111.012 E.08449
G1 X124.402 Y111.302 E.01285
G1 X124.483 Y111.576 E.01256
G1 X124.677 Y111.926 E.0176
G1 X124.857 Y112.141 E.01234
G1 X124.983 Y112.246 E.00725
G1 X125.274 Y112.43 E.01512
G1 X125.457 Y112.51 E.00881
G1 X125.744 Y112.583 E.01304
G1 X125.902 Y112.603 E.00699
G1 X128.673 Y112.609 E.12195
G1 X128.791 Y112.657 E.00558
G1 X128.83 Y112.833 E.00793
G1 X128.795 Y112.929 E.00451
G1 X128.71 Y113.023 E.00558
G1 X128.638 Y113.039 E.00323
G1 X127.612 Y113.039 E.04516
G1 X127.393 Y113.07 E.00972
G1 X127.211 Y113.137 E.00854
G1 X127.072 Y113.215 E.00703
G1 X126.847 Y113.405 E.01296
G1 X126.714 Y113.582 E.00972
G1 X126.633 Y113.758 E.00854
G1 X126.589 Y113.911 E.007
G1 X126.565 Y114.096 E.00824
G1 X126.575 Y114.75 E.02877
G1 X126.598 Y114.903 E.00681
G1 X126.724 Y115.167 E.01289
G1 X126.834 Y115.306 E.00781
G1 X127.02 Y115.463 E.01068
G1 X127.234 Y115.559 E.01034
G1 X127.515 Y115.611 E.01257
G1 X129.053 Y115.611 E.06769
G1 X129.359 Y115.586 E.01351
G1 X129.831 Y115.46 E.02149
G1 X130.255 Y115.238 E.02105
G1 X130.384 Y115.141 E.00714
G1 X130.687 Y114.847 E.01854
G1 X130.943 Y114.475 E.01989
G1 X131.536 Y112.917 E.07336
G1 X131.621 Y112.608 E.01411
G1 X131.665 Y112.205 E.0178
G1 X131.655 Y111.953 E.0111
G1 X131.526 Y111.428 E.02381
G1 X131.459 Y111.27 E.00752
G1 X131.244 Y110.91 E.01847
G1 X131.15 Y110.788 E.00676
G1 X130.936 Y110.571 E.01344
G1 X130.813 Y110.473 E.00692
G1 X130.463 Y110.26 E.01803
G1 X130.329 Y110.199 E.00646
G1 X129.901 Y110.076 E.0196
G1 X129.525 Y110.039 E.01663
G1 X127.103 Y110.039 E.10659
G1 X126.985 Y109.991 E.00558
G1 X126.936 Y109.872 E.00568
G1 X126.936 Y109.281 E.02603
G1 X126.984 Y109.163 E.00558
G1 X127.1 Y109.114 E.00558
G1 X127.204 Y109.148 E.00482
G1 X127.558 Y109.419 E.01959
G1 X127.726 Y109.512 E.00844
G1 X127.854 Y109.559 E.00602
G1 X128.076 Y109.597 E.00989
G1 X128.397 Y109.521 E.01452
G1 X128.597 Y109.418 E.00991
G1 X129.163 Y108.99 E.03122
G1 X129.836 Y108.712 E.03203
G1 X130.599 Y108.606 E.03393
G1 X131.365 Y108.701 E.03393
G1 X132.117 Y109.012 E.03584
G1 X132.725 Y109.486 E.03393
G1 X133.168 Y110.064 E.03203
G1 X133.469 Y110.774 E.03393
G1 X133.575 Y111.538 E.03393
G1 X133.469 Y112.345 E.03584
G1 X133.19 Y113.017 E.03203
G1 X132.81 Y113.522 E.02778
G1 X132.7 Y113.746 E.01099
G1 X132.653 Y113.92 E.00793
G1 X132.637 Y114.169 E.01099
G1 X132.682 Y114.553 E.01704
G1 X132.587 Y115.275 E.03203
G1 X132.275 Y116.027 E.03584
G1 X131.832 Y116.605 E.03203
G1 X131.224 Y117.079 E.03393
G1 X130.472 Y117.39 E.03584
G1 X129.706 Y117.485 E.03393
G1 X128.983 Y117.39 E.03211
G1 X128.822 Y117.39 E.00708
G1 X128.529 Y117.451 E.01318
G1 X128.193 Y117.584 E.01586
G1 X127.428 Y117.679 E.03393
G1 X126.664 Y117.573 E.03393
G1 X125.954 Y117.272 E.03393
G1 X125.377 Y116.829 E.03203
G1 X124.903 Y116.221 E.03393
G1 X124.602 Y115.511 E.03393
G1 X124.498 Y114.76 E.03334
G1 X124.39 Y114.456 E.01419
G1 X124.192 Y114.212 E.0138
G1 X123.402 Y113.612 E.04368
G1 X122.94 Y113 E.03375
G1 X122.661 Y112.327 E.03203
G1 X122.555 Y111.564 E.03393
G1 X122.65 Y110.798 E.03393
G1 X122.962 Y110.046 E.03584
G1 X123.411 Y109.469 E.03217
G1 X123.621 Y110.185 F12000
G1 F1800
G1 X123.743 Y110.217 E.00558
G1 X123.81 Y110.35 E.00654
G1 X123.81 Y111.002 E.02869
G1 X123.871 Y111.469 E.02071
G1 X124.002 Y111.857 E.01804
G1 X124.258 Y112.293 E.02223
G1 X124.508 Y112.574 E.01656
G1 X124.693 Y112.722 E.01041
G1 X124.966 Y112.895 E.01425
G1 X125.227 Y113.017 E.01266
G1 X125.68 Y113.136 E.02062
G1 X126.045 Y113.161 E.01609
G1 X126.159 Y113.217 E.00558
G1 X126.19 Y113.385 E.00753
G1 X126.055 Y113.755 E.01731
G1 X126.014 Y114.015 E.01158
G1 X126.018 Y114.751 E.0324
G1 X126.046 Y114.975 E.00993
G1 X126.099 Y115.15 E.00807
G1 X126.296 Y115.523 E.01857
G1 X126.485 Y115.74 E.01263
G1 X126.651 Y115.881 E.0096
G1 X126.798 Y115.973 E.00764
G1 X127.15 Y116.11 E.01659
G1 X127.401 Y116.156 E.01123
G1 X129.046 Y116.168 E.07239
G1 X129.516 Y116.121 E.0208
G1 X130.098 Y115.949 E.0267
G1 X130.504 Y115.737 E.02017
G1 X130.712 Y115.591 E.01115
G1 X131.155 Y115.15 E.02753
G1 X131.396 Y114.798 E.01877
G1 X131.467 Y114.663 E.00669
G1 X131.771 Y113.864 E.03765
G1 X131.858 Y113.771 E.00558
G1 X131.985 Y113.766 E.00558
G1 X132.078 Y113.852 E.00558
G1 X132.094 Y113.928 E.00344
G1 X132.085 Y114.245 E.01396
G1 X132.118 Y114.57 E.01434
G1 X132.036 Y115.15 E.02578
G1 X131.775 Y115.764 E.02935
G1 X131.417 Y116.222 E.02561
G1 X130.959 Y116.579 E.02554
G1 X130.306 Y116.85 E.03112
G1 X129.687 Y116.921 E.02739
G1 X129.064 Y116.839 E.02764
G1 X128.834 Y116.833 E.01013
G1 X128.424 Y116.904 E.01831
G1 X128.033 Y117.042 E.01825
G1 X127.411 Y117.114 E.02758
G1 X126.794 Y117.022 E.02745
G1 X126.22 Y116.774 E.02751
G1 X125.759 Y116.414 E.02573
G1 X125.379 Y115.916 E.02757
G1 X125.153 Y115.381 E.02555
G1 X125.017 Y114.558 E.0367
G1 X124.919 Y114.283 E.01289
G1 X124.814 Y114.095 E.00945
G1 X124.521 Y113.763 E.0195
G1 X123.786 Y113.196 E.04083
G1 X123.44 Y112.738 E.02529
G1 X123.211 Y112.2 E.02573
G1 X123.12 Y111.538 E.02942
G1 X123.202 Y110.921 E.02738
G1 X123.461 Y110.311 E.02916
G1 X123.511 Y110.248 E.00354
G1 X123.586 Y110.205 E.00382
G1 E-.84 F2400
;WIPE_START
G1 F1800
G1 X123.743 Y110.217 E-.05682
G1 X123.81 Y110.35 E-.05352
G1 X123.81 Y111.002 E-.23473
G1 X123.816 Y111.043 E-.01493
;WIPE_END
G17
G3 Z.6 I.31 J1.177 P1  F12000
G1 X130.009 Y109.411 Z.6
G1 Z.2
G1 E1.2 F1800
G1 X130.002 Y109.354 E.00256
G1 X130.14 Y109.232 E.0081
G1 X130.625 Y109.17 E.02153
G1 X131.199 Y109.241 E.02542
G1 X131.813 Y109.489 E.02916
G1 X132.31 Y109.869 E.0275
G1 X132.691 Y110.366 E.02758
G1 X132.93 Y110.945 E.02757
G1 X133.01 Y111.562 E.02738
G1 X132.918 Y112.22 E.02923
G1 X132.69 Y112.756 E.02562
G1 X132.379 Y113.169 E.02275
G1 X132.27 Y113.234 E.00558
G1 X132.147 Y113.203 E.00558
G1 X132.08 Y113.095 E.00558
G1 X132.176 Y112.656 E.01977
G1 X132.217 Y112.276 E.01684
G1 X132.212 Y111.946 E.01453
G1 X132.069 Y111.306 E.02885
G1 X131.932 Y110.975 E.01577
G1 X131.727 Y110.632 E.01758
G1 X131.596 Y110.453 E.00975
G1 X131.338 Y110.185 E.01637
G1 X131.165 Y110.042 E.00988
G1 X130.688 Y109.751 E.02459
G1 X130.474 Y109.661 E.01022
G1 X130.117 Y109.558 E.01635
G1 X130.017 Y109.479 E.00558
G1 X130.014 Y109.451 E.00126
G1 E-.84 F2400
;WIPE_START
G1 F1800
G1 X130.002 Y109.354 E-.03537
G1 X130.14 Y109.232 E-.06625
G1 X130.625 Y109.17 E-.17614
G1 X130.852 Y109.198 E-.08223
;WIPE_END
G17
G3 Z.6 I-.084 J-1.214 P1  F12000
G1 X98.086 Y111.466 Z.6
G1 Z.2
G1 E1.2 F1800
G1 X97.966 Y112.377 E.04042
G1 X97.614 Y113.226 E.04042
G1 X97.055 Y113.954 E.04042
G1 X96.326 Y114.513 E.04042
G1 X96.232 Y114.553 E.0045
G1 X96.105 Y114.658 E.00726
G1 X96.062 Y114.774 E.00542
G1 X95.949 Y115.636 E.03827
G1 X95.597 Y116.484 E.04042
G1 X95.038 Y117.213 E.04042
G1 X94.309 Y117.772 E.04042
G1 X93.461 Y118.124 E.04042
G1 X92.55 Y118.244 E.04042
G1 X91.639 Y118.124 E.04042
G1 X91.097 Y117.899 E.02583
G1 X90.954 Y117.88 E.00634
G1 X90.176 Y117.983 E.03455
G1 X89.265 Y117.863 E.04042
G1 X88.416 Y117.511 E.04042
G1 X87.688 Y116.952 E.04042
G1 X87.129 Y116.223 E.04042
G1 X86.777 Y115.375 E.04042
G1 X86.712 Y114.877 E.02208
G1 X86.656 Y114.744 E.00634
G1 X86.185 Y114.13 E.03407
G1 X85.834 Y113.281 E.04042
G1 X85.714 Y112.371 E.04042
G1 X85.834 Y111.46 E.04042
G1 X86.185 Y110.611 E.04042
G1 X86.744 Y109.883 E.04042
G1 X87.473 Y109.323 E.04042
G1 X88.322 Y108.972 E.04042
G1 X89.232 Y108.852 E.04042
G1 X90.143 Y108.972 E.04042
G1 X90.992 Y109.323 E.04042
G1 X91.288 Y109.551 E.01646
G1 X91.443 Y109.608 E.00726
G1 X91.603 Y109.568 E.00726
G1 X91.679 Y109.5 E.00448
G1 X92.079 Y108.978 E.02892
G1 X92.808 Y108.419 E.04042
G1 X93.621 Y108.082 E.03876
G1 X93.621 Y110.418 E.10281
G1 X93.443 Y110.596 E.01109
G1 X90.467 Y110.596 E.13097
G1 X90.121 Y110.637 E.01531
G1 X89.699 Y110.799 E.0199
G1 X89.34 Y111.074 E.0199
G1 X89.073 Y111.439 E.01991
G1 X88.921 Y111.866 E.01993
G1 X88.897 Y112.316 E.01984
G1 X88.984 Y112.716 E.01799
G1 X89.502 Y114.124 E.06604
G1 X89.685 Y114.431 E.01573
G1 X89.897 Y114.656 E.01359
G1 X90.267 Y114.9 E.01949
G1 X90.676 Y115.03 E.0189
G1 X90.94 Y115.054 E.01166
G1 X92.577 Y115.043 E.07204
G1 X92.63 Y115.027 E.00243
G1 X92.797 Y114.895 E.00938
G1 X92.844 Y114.81 E.00426
G1 X92.879 Y114.675 E.00613
G1 X92.879 Y114.075 E.0264
G1 X92.828 Y113.898 E.00811
G1 X92.768 Y113.807 E.00478
G1 X92.577 Y113.647 E.01095
G1 X92.401 Y113.596 E.00806
G1 X90.92 Y113.59 E.06517
G1 X90.882 Y113.576 E.00181
G1 X90.816 Y113.49 E.00476
G1 X90.363 Y112.246 E.05826
G1 X90.361 Y112.128 E.00519
G1 X90.393 Y112.082 E.00245
G1 X90.445 Y112.061 E.00247
G1 X94.008 Y112.053 E.15678
G1 X94.332 Y112 E.01445
G1 X94.489 Y111.934 E.00752
G1 X94.669 Y111.818 E.0094
G1 X94.93 Y111.517 E.01755
G1 X95.038 Y111.266 E.012
G1 X95.071 Y111.082 E.00823
G1 X95.078 Y108.015 E.13499
G1 X95.478 Y108.068 E.01774
G1 X96.326 Y108.419 E.04042
G1 X97.055 Y108.978 E.04042
G1 X97.614 Y109.707 E.04042
G1 X97.966 Y110.556 E.04042
G1 X98.08 Y111.427 E.03866
G1 X97.521 Y111.444 F12000
G1 F1800
G1 X97.426 Y112.21 E.03393
G1 X97.136 Y112.924 E.03393
G1 X96.671 Y113.539 E.03393
G1 X96.063 Y114.013 E.03393
G1 X95.766 Y114.216 E.01581
G1 X95.578 Y114.481 E.01432
G1 X95.508 Y114.714 E.01069
G1 X95.398 Y115.511 E.03539
G1 X95.097 Y116.221 E.03393
G1 X94.623 Y116.829 E.03393
G1 X94.008 Y117.294 E.03393
G1 X93.336 Y117.573 E.03203
G1 X92.528 Y117.679 E.03584
G1 X91.807 Y117.584 E.03203
G1 X91.325 Y117.39 E.02284
G1 X91.031 Y117.329 E.01318
G1 X90.871 Y117.329 E.00708
G1 X90.154 Y117.418 E.03178
G1 X89.432 Y117.323 E.03203
G1 X88.718 Y117.033 E.03393
G1 X88.072 Y116.537 E.03584
G1 X87.607 Y115.922 E.03393
G1 X87.328 Y115.25 E.03203
G1 X87.266 Y114.82 E.0191
G1 X87.172 Y114.536 E.01318
G1 X87.092 Y114.396 E.00708
G1 X86.663 Y113.829 E.0313
G1 X86.373 Y113.114 E.03393
G1 X86.278 Y112.349 E.03393
G1 X86.385 Y111.585 E.03393
G1 X86.685 Y110.875 E.03393
G1 X87.159 Y110.266 E.03393
G1 X87.774 Y109.802 E.03393
G1 X88.489 Y109.512 E.03393
G1 X89.254 Y109.417 E.03393
G1 X89.976 Y109.512 E.03203
G1 X90.494 Y109.72 E.02456
G1 X90.583 Y109.809 E.00558
G1 X90.585 Y109.936 E.00558
G1 X90.448 Y110.041 E.00757
G1 X90.066 Y110.083 E.01693
G1 X89.913 Y110.121 E.00693
G1 X89.511 Y110.274 E.01892
G1 X89.351 Y110.364 E.00808
G1 X89.011 Y110.624 E.01884
G1 X88.882 Y110.755 E.00809
G1 X88.63 Y111.101 E.01885
G1 X88.544 Y111.264 E.00809
G1 X88.401 Y111.668 E.01887
G1 X88.365 Y111.848 E.00807
G1 X88.341 Y112.275 E.01882
G1 X88.355 Y112.444 E.00747
G1 X88.465 Y112.918 E.0214
G1 X88.975 Y114.304 E.06499
G1 X89.201 Y114.705 E.02026
G1 X89.486 Y115.032 E.0191
G1 X89.599 Y115.127 E.00647
G1 X89.951 Y115.359 E.01855
G1 X90.109 Y115.434 E.00771
G1 X90.493 Y115.557 E.01774
G1 X90.887 Y115.608 E.01747
G1 X92.569 Y115.6 E.07405
G1 X92.728 Y115.577 E.00706
G1 X92.992 Y115.451 E.01287
G1 X93.131 Y115.341 E.00781
G1 X93.288 Y115.155 E.01068
G1 X93.384 Y114.941 E.01034
G1 X93.436 Y114.66 E.01257
G1 X93.436 Y114.087 E.02523
G1 X93.367 Y113.758 E.01478
G1 X93.287 Y113.584 E.0084
G1 X93.114 Y113.371 E.01208
G1 X92.95 Y113.232 E.00948
G1 X92.714 Y113.107 E.01176
G1 X92.566 Y113.064 E.00678
G1 X92.392 Y113.039 E.00772
G1 X91.36 Y113.035 E.04542
G1 X91.243 Y112.986 E.00558
G1 X91.203 Y112.925 E.0032
G1 X91.173 Y112.841 E.00395
G1 X91.178 Y112.714 E.00558
G1 X91.329 Y112.616 E.00791
G1 X94.11 Y112.601 E.1224
G1 X94.555 Y112.51 E.01997
G1 X94.8 Y112.396 E.01189
G1 X94.96 Y112.294 E.00837
G1 X95.098 Y112.174 E.00802
G1 X95.343 Y111.892 E.01645
G1 X95.445 Y111.728 E.00851
G1 X95.587 Y111.354 E.01757
G1 X95.628 Y111.072 E.01257
